brandFactory_export/2.Regular/Diana_2Regular.svg

<?xml version="1.0" encoding="UTF-8"?>
<svg width="24px" height="24px" viewBox="0 0 24 24" version="1.1" xmlns="http://www.w3.org/2000/svg" xmlns:xlink="http://www.w3.org/1999/xlink">
    <title>2.Regular/Diana_2Regular</title>
    <g id="Symbols" stroke="none" stroke-width="1" fill="none" fill-rule="evenodd">
        <g id="2.Regular/Diana_2Regular" fill="#5CB615" fill-rule="nonzero">
            <path d="M20.7226891,6.04369748 L18.994958,6.01680672 L20.0168067,4.99495798 L21.4857143,5.01176471 L20.7226891,6.04369748 L20.7226891,6.04369748 Z M13.1563025,14.4168067 C13.1563025,16.6991597 12.5512605,18.2319328 9.60336134,18.2857143 L9.13277311,18.292437 L8.91092437,18.2890756 C5.9697479,18.2453782 5.36806723,16.6890756 5.36806723,14.3630252 C5.36806723,12.0638655 5.95294118,10.5243697 8.80672269,10.497479 C8.88067227,10.497479 9.34117647,10.5008403 9.51596639,10.5042017 C10.5714286,10.5277311 11.3277311,10.7361345 11.8756303,11.092437 L9.36134454,13.6033613 L9.31428571,13.0655462 C9.28067227,12.6689076 8.94789916,12.3798319 8.53109244,12.410084 C8.13445378,12.4436975 7.84201681,12.7932773 7.87563025,13.189916 L8.05714286,15.2705882 C8.06386555,15.3411765 8.08067227,15.4084034 8.10756303,15.4722689 L8.11764706,15.492437 C8.14789916,15.5630252 8.18823529,15.6235294 8.23865546,15.6806723 C8.25546218,15.7008403 8.27226891,15.7176471 8.29243697,15.7310924 C8.3394958,15.7747899 8.38991597,15.8084034 8.44705882,15.8386555 C8.46722689,15.8487395 8.48403361,15.8621849 8.50420168,15.8689076 C8.51428571,15.8722689 8.5210084,15.8789916 8.53109244,15.8823529 C8.59159664,15.9058824 8.65546218,15.9092437 8.71932773,15.9159664 C8.73613445,15.9159664 8.74957983,15.9260504 8.76638655,15.9260504 L11.0957983,15.9663866 L11.1092437,15.9663866 C11.502521,15.9663866 11.8252101,15.6504202 11.8319328,15.2571429 C11.8386555,14.8605042 11.5226891,14.5310924 11.1226891,14.5243697 L10.4907563,14.5142857 L12.8067227,12.1983193 C13.0689076,12.810084 13.1563025,13.5596639 13.1563025,14.4168067 L13.1563025,14.4168067 Z M17.0823529,14.4168067 C17.0823529,21.3277311 11.892437,22.1680672 9.6605042,22.2117647 C9.50252101,22.2151261 9.3210084,22.2151261 9.1394958,22.2151261 L8.8605042,22.2117647 C6.63193277,22.1815126 1.44537815,21.3512605 1.44537815,14.3596639 C1.44537815,7.38487395 6.58151261,6.58487395 8.78991597,6.56806723 L8.96470588,6.56806723 C9.18655462,6.56806723 9.41512605,6.57142857 9.61680672,6.57815126 C10.8571429,6.60840336 12.9983193,6.89411765 14.6722689,8.29579832 L12.907563,10.0605042 C12.1647059,9.49243697 11.0957983,9.09579832 9.55294118,9.06218487 C9.36134454,9.05546218 8.81008403,9.05210084 8.81008403,9.05210084 C3.92941176,9.09579832 3.92941176,13.0588235 3.92941176,14.3596639 C3.92941176,15.6705882 3.92941176,19.6571429 8.89411765,19.7277311 L9.12268908,19.7310924 L9.62016807,19.7243697 C14.6016807,19.6369748 14.6016807,15.707563 14.6016807,14.4134454 C14.6016807,13.7344538 14.594958,12.3361345 13.8722689,11.1361345 L15.6571429,9.3512605 C16.5008403,10.507563 17.0823529,12.1243697 17.0823529,14.4168067 Z M17.7915966,3.17310924 L18.8403361,2.29579832 L18.8403361,4.12773109 L17.8655462,5.10252101 L17.7915966,3.17310924 Z M23.5495798,3.97983193 C23.4285714,3.73781513 23.1831933,3.58319328 22.9109244,3.57983193 L21.3344538,3.56302521 C21.4184874,3.31092437 21.3680672,3.02184874 21.1663866,2.82016807 C20.9243697,2.58151261 20.5613445,2.55798319 20.2857143,2.72941176 L20.2857143,0.752941176 C20.2857143,0.47394958 20.1243697,0.218487395 19.8689076,0.0974789916 C19.6201681,-0.0201680672 19.3176471,0.0168067227 19.102521,0.198319328 L16.5983193,2.28907563 C16.4268908,2.4302521 16.3294118,2.64537815 16.3394958,2.87058824 L16.4806723,6.48739496 L15.687395,7.28067227 C13.5092437,5.42184874 10.702521,5.15966387 9.65042017,5.13613445 C9.44201681,5.12941176 9.2,5.12605042 8.96470588,5.12605042 L8.77310924,5.12605042 C6.91428571,5.14285714 0,5.78151261 0,14.3596639 C0,22.9546218 6.97815126,23.6268908 8.84033613,23.6537815 C8.93781513,23.6571429 9.03865546,23.6571429 9.1394958,23.6571429 C9.33109244,23.6571429 9.52268908,23.6537815 9.68739496,23.6504202 C11.4554622,23.6201681 18.5277311,22.9546218 18.5277311,14.4168067 C18.5277311,11.6302521 17.7647059,9.6907563 16.6857143,8.32268908 L17.5764706,7.43193277 L21.0722689,7.48907563 L21.0823529,7.48907563 C21.3109244,7.48907563 21.5260504,7.38151261 21.6638655,7.19663866 L23.4823529,4.72941176 C23.6436975,4.51092437 23.6672269,4.22184874 23.5495798,3.97983193 L23.5495798,3.97983193 Z" id="Diana_2Regular"></path>
        </g>
    </g>
</svg>

<svg width="24" height="24" viewBox="0 0 24 24" xmlns="http://www.w3.org/2000/svg"><path d="M20.723 6.044l-1.728-.027 1.022-1.022 1.469.017-.763 1.032zm-7.567 8.373c0 2.282-.605 3.815-3.553 3.869l-.47.006-.222-.003c-2.941-.044-3.543-1.6-3.543-3.926 0-2.3.585-3.839 3.439-3.866.074 0 .534.004.709.007 1.055.024 1.812.232 2.36.588L9.36 13.603l-.047-.537a.714.714 0 00-.783-.656.72.72 0 00-.655.78l.181 2.08c.007.071.024.138.05.202l.01.02a.693.693 0 00.33.347c.02.01.037.023.057.03.01.003.017.01.027.013.06.024.124.027.188.034.017 0 .03.01.047.01l2.33.04h.013a.72.72 0 00.013-1.442l-.631-.01 2.316-2.316c.262.612.35 1.362.35 2.219zm3.926 0c0 6.91-5.19 7.751-7.421 7.795-.158.003-.34.003-.522.003l-.278-.003c-2.23-.03-7.416-.86-7.416-7.852 0-6.975 5.137-7.775 7.345-7.792h.175c.222 0 .45.003.652.01 1.24.03 3.381.316 5.055 1.718l-1.764 1.765c-.743-.569-1.812-.965-3.355-.999-.192-.007-.743-.01-.743-.01-4.88.044-4.88 4.007-4.88 5.308 0 1.31 0 5.297 4.964 5.368l.229.003.497-.007c4.982-.087 4.982-4.016 4.982-5.31 0-.68-.007-2.078-.73-3.278l1.785-1.785c.844 1.157 1.425 2.773 1.425 5.066zm.71-11.244l1.048-.877v1.832l-.974.975-.074-1.93zm5.758.807a.723.723 0 00-.64-.4l-1.576-.017a.721.721 0 00-.168-.743.712.712 0 00-.88-.09V.752a.726.726 0 00-.417-.656.718.718 0 00-.766.101L16.598 2.29a.713.713 0 00-.259.582l.142 3.616-.794.794C13.51 5.42 10.703 5.16 9.65 5.136c-.208-.007-.45-.01-.685-.01h-.192C6.914 5.143 0 5.782 0 14.36c0 8.595 6.978 9.267 8.84 9.294a27.079 27.079 0 00.847-.003c1.768-.03 8.84-.696 8.84-9.234 0-2.787-.762-4.726-1.841-6.094l.89-.891 3.496.057h.01a.724.724 0 00.582-.292l1.818-2.468a.727.727 0 00.068-.75z" fill="#5CB615" fill-rule="nonzero"/></svg>
